Adwaita++/actions/symbolic/color-select-symbolic.svg

<svg height="16" width="16.006" xmlns="http://www.w3.org/2000/svg">
  <path d="m12.96.98a2 2 0 0 0 -1.374.606l-1.586 1.586-1.086-1.086a.5.5 0 0 0 -.707 0l-2.121 2.121a.5.5 0 0 0 0 .707l.646.647-5.586 5.585a.5.5 0 0 0 -.146.354v1.793l-.854.853a.5.5 0 0 0 0 .708l1 1a.5.5 0 0 0 .707 0l.854-.854h1.793a.5.5 0 0 0 .353-.146l5.586-5.586.647.646a.5.5 0 0 0 .707 0l2.121-2.121a.5.5 0 0 0 0-.707l-1.086-1.086 1.586-1.586c1.308-1.272.37-3.487-1.453-3.434zm-5.02 5.788 1.291 1.292-2.939 2.94h-2.584z" fill="#474747" fill-rule="evenodd"/>
</svg>

<svg xmlns="http://www.w3.org/2000/svg" width="16.006" height="16">
    <path d="M12.96.98a2 2 0 0 0-1.374.606L10 3.172 8.914 2.086a.5.5 0 0 0-.707 0L6.086 4.207a.5.5 0 0 0 0 .707l.646.647-5.586 5.585A.5.5 0 0 0 1 11.5v1.793l-.854.853a.5.5 0 0 0 0 .708l1 1a.5.5 0 0 0 .707 0L2.707 15H4.5a.5.5 0 0 0 .353-.146l5.586-5.586.647.646a.5.5 0 0 0 .707 0l2.121-2.121a.5.5 0 0 0 0-.707L12.828 6l1.586-1.586c1.308-1.272.37-3.487-1.453-3.434zM7.94 6.768L9.231 8.06 6.292 11H3.708z" style="line-height:normal;font-variant-ligatures:normal;font-variant-position:normal;font-variant-caps:normal;font-variant-numeric:normal;font-variant-alternates:normal;font-feature-settings:normal;text-indent:0;text-align:start;text-decoration-line:none;text-decoration-style:solid;text-decoration-color:#000;text-transform:none;text-orientation:mixed;shape-padding:0;isolation:auto;mix-blend-mode:normal" color="#000" font-weight="400" font-family="sans-serif" white-space="normal" overflow="visible" fill="#474747" fill-rule="evenodd"/>
</svg>
